X: 1
T: Micho's March
M: 4/4
L: 1/8
R: barndance
K: Dmaj
F |\ 
A2 A>B | A3- A/4B/4A/4G/4 | FA de | f2 f/e/d/B/ |
A3 (3B/c/B/ | A2 A (3B/c/d/ | ed ef | d2 dF |
Az AA/A/- | AA/A/- AA/A/ | dA de | f2 f/e/d/B/ |
A3 (3B/c/B/ | A2 A (3B/c/d/ | ed ef | d2 d2 || 
gg/g/ eg | ff/f/ d2 | gg/g/ eg | fd BA |
gg e2 | fa d>f | a2 a>b | a2 af |
g (3g/a/g/ eg | ff/f/ d2 | gg/g/ eg | fa BA |
gg e2 | fa d>f | a2 ab | a2 a |]
